X: 41794
T: Velvet, The
R: jig
M: 6/8
K: Eminor
|B3 AcB|AGF E3|zAB g2f|edB ABd|
e3 edB|dBG DFG|BGD DdB|A6|
B3 AcB|AGF E3|zAB g2f|edB ABd|
e3 edB|dBG DFG|BGD DdB|A3 dcB|
|:A2c B2G|A2d dcB|A2c B2G|B2e edc|
BAB dcB|A3 A2G|FEF AFD|E3 dcB:|

